svg/fluentui-system-icons/ic_fluent_gantt_chart_20_filled.svg

<svg width="20" height="20" viewBox="0 0 20 20" fill="none" xmlns="http://www.w3.org/2000/svg">
<path d="M2 6.5C2 5.11929 3.11929 4 4.5 4H7V6H4.5C3.67157 6 3 6.67157 3 7.5C3 8.32843 3.67157 9 4.5 9H7V16H4.5C3.11929 16 2 14.8807 2 13.5V6.5ZM8 16V9.5C8 10.3284 8.67157 11 9.5 11H11V11.5C11 12.1531 11.4174 12.7087 12 12.9146V16H8ZM10 8H12V4H8V6H8.5C9.32843 6 10 6.67157 10 7.5V8ZM15.5 13H13V16H15.5C16.8807 16 18 14.8807 18 13.5V6.5C18 5.11929 16.8807 4 15.5 4H13V8H13.5C14.3284 8 15 8.67157 15 9.5V10H15.5C16.3284 10 17 10.6716 17 11.5C17 12.3284 16.3284 13 15.5 13ZM4.5 7C4.22386 7 4 7.22386 4 7.5C4 7.77614 4.22386 8 4.5 8H8.5C8.77614 8 9 7.77614 9 7.5C9 7.22386 8.77614 7 8.5 7H4.5ZM9 9.5C9 9.22386 9.22386 9 9.5 9H13.5C13.7761 9 14 9.22386 14 9.5C14 9.77614 13.7761 10 13.5 10H9.5C9.22386 10 9 9.77614 9 9.5ZM12.5 11C12.2239 11 12 11.2239 12 11.5C12 11.7761 12.2239 12 12.5 12H15.5C15.7761 12 16 11.7761 16 11.5C16 11.2239 15.7761 11 15.5 11H12.5Z" fill="#212121"/>
</svg>

<svg xmlns="http://www.w3.org/2000/svg" width="20" height="20"><path d="M2 6.5A2.5 2.5 0 0 1 4.5 4H7v2H4.5a1.5 1.5 0 1 0 0 3H7v7H4.5A2.5 2.5 0 0 1 2 13.5v-7ZM8 16V9.5A1.5 1.5 0 0 0 9.5 11H11v.5a1.5 1.5 0 0 0 1 1.415V16H8Zm2-8h2V4H8v2h.5A1.5 1.5 0 0 1 10 7.5V8Zm5.5 5H13v3h2.5a2.5 2.5 0 0 0 2.5-2.5v-7A2.5 2.5 0 0 0 15.5 4H13v4h.5A1.5 1.5 0 0 1 15 9.5v.5h.5a1.5 1.5 0 0 1 0 3Zm-11-6a.5.5 0 0 0 0 1h4a.5.5 0 0 0 0-1h-4ZM9 9.5a.5.5 0 0 1 .5-.5h4a.5.5 0 0 1 0 1h-4a.5.5 0 0 1-.5-.5Zm3.5 1.5a.5.5 0 0 0 0 1h3a.5.5 0 0 0 0-1h-3Z"/></svg>
